src/assets/images/homepage/home/partner_logo_1.svg

<svg fill="none" height="89" viewBox="0 0 89 89" width="89" xmlns="http://www.w3.org/2000/svg"><circle cx="44.2225" cy="44.2225" fill="#fff" r="44.2225"/><path clip-rule="evenodd" d="m69.2394 41.9742c.4788-1.3345 2.4814-1.9681 3.6872-1.9681h.5486v2.9611c-.688 0-1.3896-.037-2.0508.1934-.4595.1511-.8671.4333-1.175.8133-.562.7749-.5151 1.2536-.5593 1.9805-.0416.7063-.0228 1.1891-.0228 1.8968v5.253h-3.1669v-12.9651h2.7443zm-38.5028 8.0591c-2.2681 2.2699-4.2251 3.3671-7.4469 3.3671-5.3653 0-9.07-3.8306-9.07-9.2249 0-5.5396 4.201-9.1755 9.1209-9.1755 2.8719.0033 5.5998 1.2863 7.4712 3.5139l-2.295 2.2452c-1.5519-1.6843-3.246-2.5621-5.2513-2.5621-3.2191 0-5.8467 2.5374-5.8467 5.9785 0 3.6126 2.5297 6.0279 5.9192 6.0279 2.1233 0 3.5558-.8778 5.1788-2.5373zm13.5878.4842c-1.3601 1.9777-3.1534 2.861-5.824 2.861-4.0333 0-6.6341-3.0256-6.6341-6.833 0-3.5385 2.5056-6.8096 6.5872-6.8096 4.0092 0 6.7294 2.9296 6.7294 7.0291 0 .2935-.0229.4389-.0229.7324h-10.2154c.3099 1.9284 1.7437 3.0009 3.5558 3.0009 1.3601 0 2.2682-.3895 3.1508-1.2687zm-2.3392-5.589c-.4293-1.5087-1.7893-2.4399-3.4874-2.4399-1.5747 0-2.7927.805-3.4123 2.4399zm4.8064-9.8586h3.1735v17.9671h-3.1735zm17.2403 15.4476c-1.3601 1.9777-3.1507 2.861-5.8239 2.861-4.0334 0-6.6342-3.0256-6.6342-6.833 0-3.5385 2.5056-6.8096 6.5872-6.8096 4.0092 0 6.7307 2.9296 6.7307 7.0291 0 .2935-.0241.4389-.0241.7324h-10.2155c.3099 1.9284 1.7437 3.0009 3.5559 3.0009 1.3614 0 2.2681-.3895 3.1507-1.2687zm-2.3392-5.589c-.4292-1.5087-1.7893-2.4399-3.4874-2.4399-1.5747 0-2.7913.805-3.4123 2.4399z" fill="#000" fill-rule="evenodd"/></svg>

<svg width="89" height="89" viewBox="0 0 89 89" fill="none" xmlns="http://www.w3.org/2000/svg">
<circle cx="44.2225" cy="44.2225" r="44.2225" fill="white"/>
<path fill-rule="evenodd" clip-rule="evenodd" d="M69.2394 41.9742C69.7182 40.6397 71.7208 40.0061 72.9266 40.0061H73.4752V42.9672C72.7872 42.9672 72.0856 42.9302 71.4244 43.1606C70.9649 43.3117 70.5573 43.5939 70.2494 43.9739C69.6874 44.7488 69.7343 45.2275 69.6901 45.9544C69.6485 46.6607 69.6673 47.1435 69.6673 47.8512V53.1042H66.5004V40.1391H69.2447L69.2394 41.9742ZM30.7366 50.0333C28.4685 52.3032 26.5115 53.4004 23.2897 53.4004C17.9244 53.4004 14.2197 49.5698 14.2197 44.1755C14.2197 38.6359 18.4207 35 23.3406 35C26.2125 35.0033 28.9404 36.2863 30.8118 38.5139L28.5168 40.7591C26.9649 39.0748 25.2708 38.197 23.2655 38.197C20.0464 38.197 17.4188 40.7344 17.4188 44.1755C17.4188 47.7881 19.9485 50.2034 23.338 50.2034C25.4613 50.2034 26.8938 49.3256 28.5168 47.6661L30.7366 50.0333ZM44.3244 50.5175C42.9643 52.4952 41.171 53.3785 38.5004 53.3785C34.4671 53.3785 31.8663 50.3529 31.8663 46.5455C31.8663 43.007 34.3719 39.7359 38.4535 39.7359C42.4627 39.7359 45.1829 42.6655 45.1829 46.765C45.1829 47.0585 45.16 47.2039 45.16 47.4974H34.9446C35.2545 49.4258 36.6883 50.4983 38.5004 50.4983C39.8605 50.4983 40.7686 50.1088 41.6512 49.2296L44.3244 50.5175ZM41.9852 44.9285C41.5559 43.4198 40.1959 42.4886 38.4978 42.4886C36.9231 42.4886 35.7051 43.2936 35.0855 44.9285H41.9852ZM46.7916 35.0699H49.9651V53.037H46.7916V35.0699ZM64.0319 50.5175C62.6718 52.4952 60.8812 53.3785 58.208 53.3785C54.1746 53.3785 51.5738 50.3529 51.5738 46.5455C51.5738 43.007 54.0794 39.7359 58.161 39.7359C62.1702 39.7359 64.8917 42.6655 64.8917 46.765C64.8917 47.0585 64.8676 47.2039 64.8676 47.4974H54.6521C54.962 49.4258 56.3958 50.4983 58.208 50.4983C59.5694 50.4983 60.4761 50.1088 61.3587 49.2296L64.0319 50.5175ZM61.6927 44.9285C61.2635 43.4198 59.9034 42.4886 58.2053 42.4886C56.6306 42.4886 55.414 43.2936 54.793 44.9285H61.6927Z" fill="black"/>
</svg>
